!!!OTL: 2093. St. Kilian, Apostel der Franken.
!!!ODT: 1625
!!!ARE: Europa, Mitteleuropa, Deutschland
!!!SCT: E2093
!!!TXL: @@DE
!!!YEM: Copyright 1995, estate of Helmut Schaffrath.
**kern	**text
*ICvox	*
*M3/4	*
*met(3)	*
*k[b-e-]	*
*g:	*
!LO:TX:a:t=Mel. 1625.	!
{4g	Wir
=1	=1
2g	ru-
4a	-fen
=2	=2
2b-	an
4b-	den
=3	=3
2cc	theu-
4cc	-ren
=4	=4
2dd}	Mann
{4b-	Sanct
=5	=5
2cc	Ki-
4cc	-li-
=6	=6
2dd	-an,
4b-	Sankt
=7	=7
2dd	Co-
4ee-	-lo-
=8	=8
2ff}	-nat
{4dd	und
=9	=9
2ee-	Sauct
4cc	Tot-
=10	=10
2b-	-nan.
!LO:TX:a:t=Refr.	!
4dd	Dich
=11	=11
2cc	loben,
4b-	dir
=12	=12
4a	danken
4g}	.
{8dd	dei-
8dd	-ne
=13	=13
4cc	Kin-
4cc	-der
4b-	in
=14	=14
4a	Franken,
4g	.
4b-	Sanct
=15	=15
4cc	Ki-
2a	-li-
=16	=16
2g;}	-an!
==	==
!!!AGN: geistlich, Heiligen - Lied
!!!ONB: ESAC (Essen Associative Code) Database: ERK3
!!!AMT: simple triple
!!!AIN: vox
!!!EED: Helmut Schaffrath
!!!EEV: 1.0
!!!GTL: 4. Katholische Lieder: c) Heiligenlieder (Rufe und Legenden.)
!!!URL-scan: https://rosdok.uni-rostock.de/mcrviewer/recordIdentifier/rosdok_ppn745177999/iview2/phys_0780.iview2?x=110.7041879985502&y=11.8320197109133&scale=0.7014306698522887&rotation=0&layout=singlePageLayout
!!!ENC: Anna Maria Matuszewska
!!!EEV: 2025/14/01
*-	*-
